packages/foundations/assets/icons/functional/images/date & time/calendar_12.svg

<svg width="12" height="12" viewBox="0 0 12 12" fill="none" xmlns="http://www.w3.org/2000/svg">
<g clip-path="url(#clip0_231_160)">
<path fill-rule="evenodd" clip-rule="evenodd" d="M1.80005 9.60165V3.59499C1.80005 3.26648 2.06987 2.99665 2.39838 2.99665H3.59505V2.39832C3.59505 2.06981 3.86487 1.79999 4.19332 1.79999C4.53356 1.79999 4.80338 2.06981 4.80338 2.39832V2.99665H7.19672V2.39832C7.19672 2.06981 7.46654 1.79999 7.80678 1.79999C8.13523 1.79999 8.40505 2.06981 8.40505 2.39832V2.99665H9.60172C9.93023 2.99665 10.2 3.26648 10.2 3.59499V9.60165C10.2 9.93017 9.93023 10.2 9.60172 10.2H2.39838C2.06987 10.2 1.80005 9.93017 1.80005 9.60165ZM2.99672 9.00332H9.00338V6.59832H2.99672V9.00332ZM2.99672 5.40165H9.00338V4.19326L2.99672 4.20505V5.40165Z" fill="#1A1C1F"/>
</g>
<defs>
<clipPath id="clip0_231_160">
<rect width="12" height="12" fill="white"/>
</clipPath>
</defs>
</svg>

<svg xmlns="http://www.w3.org/2000/svg" width="12" height="12" fill="none"><g clip-path="url(#a)"><path fill="#1A1C1F" fill-rule="evenodd" d="M1.8 9.602V3.595a.6.6 0 0 1 .598-.598h1.197v-.599a.6.6 0 0 1 .598-.598c.34 0 .61.27.61.598v.599h2.394v-.599c0-.328.27-.598.61-.598a.6.6 0 0 1 .598.598v.599h1.197a.6.6 0 0 1 .598.598v6.007a.6.6 0 0 1-.598.598H2.398a.6.6 0 0 1-.598-.598m1.197-.599h6.006V6.598H2.997zm0-3.601h6.006V4.193l-6.006.012z" clip-rule="evenodd"/></g><defs><clipPath id="a"><path fill="#fff" d="M0 0h12v12H0z"/></clipPath></defs></svg>
